; generated by PrusaSlicer 2.7.4 on 2025-02-25 at 11:54:30 UTC


;
;
; 

; external perimeters extrusion width = 0.45mm
; perimeters extrusion width = 0.45mm
; infill extrusion width = 0.45mm
; solid infill extrusion width = 0.45mm
; top infill extrusion width = 0.40mm
; first layer extrusion width = 0.42mm

M73 P0 R245
M73 Q0 S247
M201 X1000 Y1000 Z200 E5000 ; sets maximum accelerations, mm/sec^2
M203 X200 Y200 Z12 E120 ; sets maximum feedrates, mm / sec
M204 S1250 T1250 ; sets acceleration (S) and retract acceleration (R), mm/sec^2
M205 X8.00 Y8.00 Z0.40 E4.50 ; sets the jerk limits, mm/sec
M205 S0 T0 ; sets the minimum extruding and travel feed rate, mm/sec

; printing object rsu_holder-RSUHolderBody.stl id:0 copy 0
; stop printing object rsu_holder-RSUHolderBody.stl id:0 copy 0

;TYPE:Custom
M862.3 P "MK3S" ; printer model check
M862.1 P0.4 ; nozzle diameter check
M115 U3.13.0 ; tell printer latest fw version
G90 ; use absolute coordinates
M83 ; extruder relative mode
M104 S240 ; set extruder temp
M140 S85 ; set bed temp
M190 S85 ; wait for bed temp
M109 S240 ; wait for extruder temp
G28 W ; home all without mesh bed level
G80 ; mesh bed leveling

G1 Z0.2 F720
G1 Y-3 F1000 ; go outside print area
G92 E0
G1 X60 E9 F1000 ; intro line
G1 X100 E12.5 F1000 ; intro line

G92 E0
M221 S95

; Don't change E values below. Excessive value can damage the printer.

M907 E538 ; set extruder motor current
G21 ; set units to millimeters
G90 ; use absolute coordinates
M83 ; use relative distances for extrusion
M900 K0.08 ; Filament gcode LA 1.5
M900 K45 ; Filament gcode LA 1.0
M107
;LAYER_CHANGE
;Z:0.2
;HEIGHT:0.2
G1 E-1 F2100
G1 Z.4 F720
G1 X60.665 Y24.649 F10800
G1 Z.2 F720
G1 E1 F2100
M204 S800
;TYPE:Skirt/Brim
;WIDTH:0.42
G1 F1200
G1 X61.147 Y23.844 E.02942
G1 X61.933 Y22.977 E.03669
G1 X63.004 Y22.238 E.0408
G1 X64.132 Y21.8 E.03794
G1 X65.442 Y21.624 E.04144
G1 X184.558 Y21.624 E3.7348
G1 X185.606 Y21.738 E.03305
G1 X186.611 Y22.055 E.03304
G1 X187.439 Y22.497 E.02943
G1 X188.26 Y23.157 E.03303
G1 X188.938 Y23.965 E.03307
G1 X189.385 Y24.754 E.02843
G1 X189.729 Y25.75 E.03304
G1 X189.873 Y26.795 E.03307
G1 X189.877 Y183 E4.8977
G1 X189.81 Y183.847 E.02664
M73 P0 R244
M73 Q0 S246
G1 X189.628 Y184.617 E.02481
G1 X189.335 Y185.351 E.02478
G1 X188.853 Y186.156 E.02942
G1 X188.067 Y187.023 E.03669
G1 X186.983 Y187.769 E.04126
G1 X185.75 Y188.229 E.04126
G1 X184.5 Y188.377 E.03947
G1 X65.5 Y188.377 E3.73116
G1 X64.653 Y188.31 E.02664
G1 X63.884 Y188.128 E.02478
G1 X63.017 Y187.769 E.02942
G1 X62.344 Y187.353 E.02481
G1 X61.477 Y186.567 E.03669
G1 X60.731 Y185.483 E.04126
G1 X60.271 Y184.25 E.04126
G1 X60.123 Y183.007 E.03925
G1 X60.123 Y27 E4.89149
G1 X60.19 Y26.153 E.02664
G1 X60.372 Y25.383 E.02481
G1 X60.643 Y24.704 E.02292
M204 S1000
;WIPE_START
G1 F8640
G1 X60.665 Y24.649 E-.01368
G1 X61.147 Y23.844 E-.21665
G1 X61.933 Y22.977 E-.27021
G1 X63.004 Y22.238 E-.30045
G1 X63.807 Y21.926 E-.19901
;WIPE_END
G1 Z.4 F720
; printing object rsu_holder-RSUHolderBody.stl id:0 copy 0
G1 X186.328 Y184.202 F10800
G1 Z.2 F720
G1 E1 F2100
M204 S800
;TYPE:Perimeter
;WIDTH:0.419999
G1 F1200
G1 X186.258 Y184.321 E.00433
G1 X185.913 Y184.7 E.01607
G1 X185.444 Y184.996 E.01739
G1 X184.924 Y185.168 E.01717
G1 X184.469 Y185.213 E.01434
G1 X66.054 Y185.213 E3.71281
G1 X65.189 Y185.188 E.02713
G1 X64.655 Y185.04 E.01737
G1 X64.184 Y184.774 E.01696
G1 X63.793 Y184.401 E.01694
G1 X63.504 Y183.944 E.01695
G1 X63.332 Y183.424 E.01717
G1 X63.287 Y182.969 E.01434
G1 X63.287 Y27.109 E4.88687
G1 X63.342 Y26.545 E.01777
G1 X63.518 Y26.062 E.01612
G1 X63.742 Y25.679 E.01391
G1 X64.087 Y25.3 E.01607
G1 X64.556 Y25.003 E.01741
G1 X65.076 Y24.832 E.01716
G1 X65.531 Y24.787 E.01434
G1 X184.358 Y24.787 E3.72573
G1 X184.931 Y24.832 E.01802
G1 X185.346 Y24.958 E.0136
G1 X185.728 Y25.162 E.01358
G1 X186.063 Y25.437 E.01359
G1 X186.338 Y25.772 E.01359
G1 X186.542 Y26.154 E.01358
G1 X186.668 Y26.569 E.0136
G1 X186.713 Y27.146 E.01815
G1 X186.713 Y182.891 E4.88327
G1 X186.658 Y183.455 E.01777
G1 X186.482 Y183.938 E.01612
G1 X186.358 Y184.15 E.0077
M204 S1000
G1 X186.358 Y184.15 F10800
G1 X186.687 Y184.377
M204 S800
;TYPE:External perimeter
G1 F1200
G1 X186.521 Y184.6 E.00872
G1 X186.146 Y184.998 E.01715
G1 X185.607 Y185.34 E.02001
G1 X185.003 Y185.54 E.01995
G1 X184.488 Y185.59 E.01622
G1 X65.646 Y185.59 E3.7262
G1 X65.125 Y185.562 E.01636
G1 X64.509 Y185.391 E.02004
G1 X63.958 Y185.079 E.01985
G1 X63.499 Y184.642 E.01987
G1 X63.16 Y184.107 E.01986
G1 X62.961 Y183.503 E.01994
G1 X62.91 Y182.988 E.01623
G1 X62.91 Y27.401 E4.87831
G1 X62.927 Y26.781 E.01945
M73 P0 R243
M73 Q0 S245
G1 X63.021 Y26.253 E.01682
G1 X63.281 Y25.667 E.0201
G1 X63.479 Y25.4 E.01042
G1 X63.854 Y25.002 E.01715
G1 X64.393 Y24.66 E.02001
G1 X64.997 Y24.46 E.01995
G1 X65.512 Y24.41 E.01622
G1 X184.493 Y24.41 E3.73056
G1 X185.005 Y24.461 E.01613
G1 X185.491 Y24.608 E.01592
G1 X185.938 Y24.847 E.01589
G1 X186.331 Y25.169 E.01593
G1 X186.653 Y25.562 E.01593
G1 X186.892 Y26.009 E.01589
G1 X187.039 Y26.495 E.01592
G1 X187.09 Y27.146 E.02047
G1 X187.09 Y182.637 E4.8753
G1 X187.073 Y183.219 E.01826
G1 X186.979 Y183.747 E.01682
G1 X186.721 Y184.328 E.01993
M204 S1000
;WIPE_START
G1 F8640
G1 X186.687 Y184.377 E-.01377
G1 X186.521 Y184.6 E-.06419
G1 X186.146 Y184.998 E-.12627
G1 X185.607 Y185.34 E-.1474
G1 X185.003 Y185.54 E-.14691
G1 X184.488 Y185.59 E-.11947
G1 X182.834 Y185.59 E-.38199
;WIPE_END
G1 Z.4 F720
G1 X178.271 Y34.86 F10800
G1 Z.2 F720
G1 E1 F2100
M204 S800
;TYPE:Perimeter
G1 F1200
G1 X177.685 Y34.494 E.02166
G1 X177.137 Y33.976 E.02364
G1 X176.703 Y33.359 E.02365
G1 X176.4 Y32.669 E.02363
G1 X176.229 Y31.821 E.02712
G1 X176.229 Y31.179 E.02013
G1 X176.367 Y30.438 E.02363
G1 X176.65 Y29.74 E.02362
G1 X177.065 Y29.111 E.02363
G1 X177.596 Y28.576 E.02363
G1 X178.39 Y28.077 E.0294
G1 X179.104 Y27.823 E.02376
G1 X179.849 Y27.718 E.02359
G1 X180.602 Y27.763 E.02365
G1 X181.33 Y27.957 E.02362
G1 X182.006 Y28.29 E.02363
G1 X182.602 Y28.752 E.02364
G1 X183.095 Y29.322 E.02363
G1 X183.465 Y29.978 E.02361
G1 X183.698 Y30.695 E.02364
G1 X183.784 Y31.444 E.02364
G1 X183.72 Y32.195 E.02363
G1 X183.509 Y32.918 E.02361
G1 X183.159 Y33.585 E.02362
G1 X182.683 Y34.17 E.02365
G1 X181.952 Y34.741 E.02908
G1 X181.259 Y35.069 E.02404
G1 X180.526 Y35.248 E.02366
G1 X179.773 Y35.278 E.02363
G1 X179.029 Y35.158 E.02363
G1 X178.324 Y34.893 E.02361
G1 X178.321 Y34.892 E.0001
M204 S1000
G1 X178.321 Y34.892 F10800
G1 X178.409 Y34.509
M204 S800
;TYPE:External perimeter
G1 F1200
G1 X177.889 Y34.177 E.01934
G1 X177.401 Y33.706 E.02127
G1 X177.015 Y33.147 E.0213
G1 X176.748 Y32.523 E.02128
G1 X176.606 Y31.821 E.02246
G1 X176.606 Y31.179 E.02013
G1 X176.737 Y30.513 E.02128
G1 X176.997 Y29.886 E.02128
G1 X177.376 Y29.323 E.02128
G1 X177.86 Y28.846 E.02131
G1 X178.586 Y28.399 E.02673
G1 X179.223 Y28.18 E.02112
G1 X179.896 Y28.092 E.02128
G1 X180.574 Y28.139 E.02131
G1 X181.228 Y28.32 E.02128
G1 X181.834 Y28.626 E.02129
G1 X182.367 Y29.046 E.02128
G1 X182.806 Y29.564 E.02129
G1 X183.134 Y30.158 E.02128
G1 X183.338 Y30.806 E.0213
G1 X183.409 Y31.481 E.02128
G1 X183.345 Y32.157 E.02129
G1 X183.149 Y32.807 E.02129
G1 X182.827 Y33.405 E.0213
G1 X182.394 Y33.928 E.02129
G1 X181.725 Y34.44 E.02641
G1 X181.104 Y34.726 E.02144
G1 X180.443 Y34.88 E.02128
G1 X179.764 Y34.901 E.0213
G1 X179.095 Y34.787 E.02128
G1 X178.461 Y34.542 E.02131
G1 X178.459 Y34.541 E.00007
M204 S1000
;WIPE_START
G1 F8640
G1 X178.409 Y34.509 E-.01371
G1 X177.889 Y34.177 E-.14245
G1 X177.401 Y33.706 E-.1566
G1 X177.015 Y33.147 E-.15686
G1 X176.748 Y32.523 E-.15672
G1 X176.606 Y31.821 E-.16538
G1 X176.606 Y31.179 E-.14824
G1 X176.656 Y30.924 E-.06004
;WIPE_END
G1 Z.4 F720
G1 X72.627 Y34.213 F10800
G1 Z.2 F720
G1 E1 F2100
M204 S800
;TYPE:Perimeter
G1 F1200
G1 X71.952 Y34.741 E.02687
G1 X71.259 Y35.069 E.02404
G1 X70.526 Y35.248 E.02366
G1 X69.773 Y35.278 E.02363
G1 X69.029 Y35.158 E.02363
G1 X68.324 Y34.893 E.02361
G1 X67.685 Y34.494 E.02362
G1 X67.137 Y33.976 E.02364
G1 X66.703 Y33.359 E.02365
G1 X66.4 Y32.669 E.02363
G1 X66.24 Y31.933 E.02362
G1 X66.229 Y31.179 E.02364
G1 X66.367 Y30.438 E.02363
G1 X66.65 Y29.74 E.02362
G1 X67.065 Y29.111 E.02363
G1 X67.596 Y28.576 E.02363
G1 X68.39 Y28.077 E.0294
G1 X69.104 Y27.823 E.02376
G1 X69.849 Y27.718 E.02359
G1 X70.602 Y27.763 E.02365
G1 X71.33 Y27.957 E.02362
G1 X72.006 Y28.29 E.02363
G1 X72.602 Y28.752 E.02364
G1 X73.095 Y29.322 E.02363
G1 X73.465 Y29.978 E.02361
G1 X73.698 Y30.695 E.02364
G1 X73.784 Y31.444 E.02364
G1 X73.72 Y32.195 E.02363
G1 X73.509 Y32.918 E.02361
G1 X73.159 Y33.585 E.02362
G1 X72.683 Y34.17 E.02365
G1 X72.674 Y34.176 E.00034
M204 S1000
G1 X72.674 Y34.176 F10800
G1 X72.277 Y34.017
M204 S800
;TYPE:External perimeter
G1 F1200
G1 X71.725 Y34.44 E.0218
G1 X71.104 Y34.726 E.02144
G1 X70.443 Y34.88 E.02128
G1 X69.764 Y34.901 E.0213
G1 X69.095 Y34.787 E.02128
G1 X68.461 Y34.542 E.02131
G1 X67.889 Y34.177 E.02127
G1 X67.401 Y33.706 E.02127
G1 X67.015 Y33.147 E.0213
G1 X66.748 Y32.523 E.02128
G1 X66.61 Y31.858 E.02129
G1 X66.606 Y31.179 E.02129
G1 X66.737 Y30.513 E.02128
G1 X66.997 Y29.886 E.02128
G1 X67.376 Y29.323 E.02128
G1 X67.86 Y28.846 E.02131
G1 X68.586 Y28.399 E.02673
G1 X69.223 Y28.18 E.02112
G1 X69.896 Y28.092 E.02128
G1 X70.574 Y28.139 E.02131
G1 X71.228 Y28.32 E.02128
G1 X71.834 Y28.626 E.02129
G1 X72.367 Y29.046 E.02128
G1 X72.806 Y29.564 E.02129
G1 X73.134 Y30.158 E.02128
G1 X73.338 Y30.806 E.0213
G1 X73.409 Y31.481 E.02128
G1 X73.345 Y32.157 E.02129
G1 X73.149 Y32.807 E.02129
G1 X72.827 Y33.405 E.0213
G1 X72.394 Y33.928 E.02129
G1 X72.324 Y33.981 E.00275
M204 S1000
;WIPE_START
G1 F8640
G1 X72.277 Y34.017 E-.01367
G1 X71.725 Y34.44 E-.16058
G1 X71.104 Y34.726 E-.15787
G1 X70.443 Y34.88 E-.15671
G1 X69.764 Y34.901 E-.15686
G1 X69.095 Y34.787 E-.1567
G1 X68.461 Y34.542 E-.15694
G1 X68.313 Y34.447 E-.04067
;WIPE_END
G1 Z.4 F720
G1 X68.455 Y175.054 F10800
G1 Z.2 F720
G1 E1 F2100
M204 S800
;TYPE:Perimeter
G1 F1200
G1 X69.104 Y174.823 E.0216
G1 X69.849 Y174.718 E.02359
G1 X70.602 Y174.763 E.02365
G1 X71.33 Y174.957 E.02362
G1 X72.006 Y175.29 E.02363
G1 X72.602 Y175.752 E.02364
G1 X73.095 Y176.322 E.02363
G1 X73.509 Y177.082 E.02714
G1 X73.698 Y177.695 E.02011
G1 X73.784 Y178.444 E.02364
G1 X73.72 Y179.195 E.02363
G1 X73.509 Y179.918 E.02361
G1 X73.159 Y180.585 E.02362
G1 X72.683 Y181.17 E.02365
G1 X71.952 Y181.741 E.02908
G1 X71.259 Y182.069 E.02404
G1 X70.526 Y182.248 E.02366
G1 X69.773 Y182.278 E.02363
G1 X69.029 Y182.158 E.02363
G1 X68.324 Y181.893 E.02361
G1 X67.685 Y181.494 E.02362
G1 X67.065 Y180.889 E.02716
G1 X66.703 Y180.359 E.02012
G1 X66.4 Y179.669 E.02363
G1 X66.24 Y178.933 E.02362
G1 X66.229 Y178.179 E.02364
G1 X66.367 Y177.438 E.02363
G1 X66.65 Y176.74 E.02362
G1 X67.065 Y176.111 E.02363
G1 X67.596 Y175.576 E.02363
G1 X68.39 Y175.077 E.0294
G1 X68.398 Y175.074 E.00027
M204 S1000
G1 X68.398 Y175.074 F10800
G1 X68.57 Y175.409
M204 S800
;TYPE:External perimeter
G1 F1200
G1 X68.586 Y175.399 E.00059
G1 X69.223 Y175.18 E.02112
G1 X69.896 Y175.092 E.02128
G1 X70.574 Y175.139 E.02131
G1 X71.228 Y175.32 E.02128
G1 X71.834 Y175.626 E.02129
G1 X72.367 Y176.046 E.02128
G1 X72.806 Y176.564 E.02129
G1 X73.149 Y177.193 E.02246
G1 X73.338 Y177.806 E.02011
G1 X73.409 Y178.481 E.02128
G1 X73.345 Y179.157 E.02129
G1 X73.149 Y179.807 E.02129
G1 X72.827 Y180.405 E.0213
G1 X72.394 Y180.928 E.02129
G1 X71.725 Y181.44 E.02641
G1 X71.104 Y181.726 E.02144
G1 X70.443 Y181.88 E.02128
G1 X69.764 Y181.901 E.0213
G1 X69.095 Y181.787 E.02128
G1 X68.461 Y181.542 E.02131
G1 X67.889 Y181.177 E.02127
G1 X67.401 Y180.706 E.02127
G1 X67.015 Y180.147 E.0213
G1 X66.748 Y179.523 E.02128
G1 X66.61 Y178.858 E.02129
G1 X66.606 Y178.179 E.02129
G1 X66.737 Y177.513 E.02128
G1 X66.997 Y176.886 E.02128
G1 X67.376 Y176.323 E.02128
G1 X67.86 Y175.846 E.02131
G1 X68.519 Y175.44 E.02427
M204 S1000
;WIPE_START
G1 F8640
G1 X68.57 Y175.409 E-.01378
G1 X68.586 Y175.399 E-.00436
G1 X69.223 Y175.18 E-.15553
G1 X69.896 Y175.092 E-.15672
G1 X70.574 Y175.139 E-.15693
G1 X71.228 Y175.32 E-.15669
G1 X71.834 Y175.626 E-.15675
G1 X72.367 Y176.046 E-.15669
G1 X72.486 Y176.187 E-.04255
;WIPE_END
G1 Z.4 F720
G1 X177.34 Y175.834 F10800
G1 Z.2 F720
G1 E1 F2100
M204 S800
;TYPE:Perimeter
G1 F1200
G1 X177.596 Y175.576 E.0114
G1 X178.39 Y175.077 E.0294
G1 X179.104 Y174.823 E.02376
G1 X179.849 Y174.718 E.02359
G1 X180.602 Y174.763 E.02365
G1 X181.33 Y174.957 E.02362
G1 X182.006 Y175.29 E.02363
G1 X182.602 Y175.752 E.02364
G1 X183.095 Y176.322 E.02363
G1 X183.465 Y176.978 E.02361
G1 X183.698 Y177.695 E.02364
G1 X183.784 Y178.444 E.02364
G1 X183.72 Y179.195 E.02363
G1 X183.509 Y179.918 E.02361
G1 X183.159 Y180.585 E.02362
G1 X182.683 Y181.17 E.02365
G1 X181.952 Y181.741 E.02908
G1 X181.259 Y182.069 E.02404
G1 X180.526 Y182.248 E.02366
G1 X179.773 Y182.278 E.02363
G1 X179.029 Y182.158 E.02363
G1 X178.324 Y181.893 E.02361
G1 X177.685 Y181.494 E.02362
G1 X177.137 Y180.976 E.02364
G1 X176.703 Y180.359 E.02365
G1 X176.4 Y179.669 E.02363
G1 X176.24 Y178.933 E.02362
G1 X176.229 Y178.179 E.02364
G1 X176.367 Y177.438 E.02363
G1 X176.65 Y176.74 E.02362
G1 X177.065 Y176.111 E.02363
G1 X177.298 Y175.876 E.01038
M204 S1000
G1 X177.298 Y175.876 F10800
G1 X177.892 Y175.827
M204 S800
;TYPE:External perimeter
G1 F1200
G1 X178.586 Y175.399 E.02557
G1 X179.223 Y175.18 E.02112
G1 X179.896 Y175.092 E.02128
G1 X180.574 Y175.139 E.02131
G1 X181.228 Y175.32 E.02128
G1 X181.834 Y175.626 E.02129
G1 X182.367 Y176.046 E.02128
G1 X182.806 Y176.564 E.02129
G1 X183.134 Y177.158 E.02128
G1 X183.338 Y177.806 E.0213
G1 X183.409 Y178.481 E.02128
G1 X183.345 Y179.157 E.02129
G1 X183.149 Y179.807 E.02129
G1 X182.827 Y180.405 E.0213
G1 X182.394 Y180.928 E.02129
G1 X181.725 Y181.44 E.02641
G1 X181.104 Y181.726 E.02144
G1 X180.443 Y181.88 E.02128
G1 X179.764 Y181.901 E.0213
G1 X179.095 Y181.787 E.02128
G1 X178.461 Y181.542 E.02131
G1 X177.889 Y181.177 E.02127
G1 X177.401 Y180.706 E.02127
G1 X177.015 Y180.147 E.0213
G1 X176.748 Y179.523 E.02128
G1 X176.61 Y178.858 E.02129
G1 X176.606 Y178.179 E.02129
G1 X176.737 Y177.513 E.02128
G1 X176.997 Y176.886 E.02128
G1 X177.376 Y176.323 E.02128
G1 X177.844 Y175.862 E.0206
M204 S1000
;WIPE_START
G1 F8640
G1 X177.892 Y175.827 E-.01372
G1 X178.586 Y175.399 E-.18827
G1 X179.223 Y175.18 E-.15553
G1 X179.896 Y175.092 E-.15672
G1 X180.574 Y175.139 E-.15693
G1 X181.228 Y175.32 E-.15669
G1 X181.834 Y175.626 E-.15675
G1 X181.886 Y175.667 E-.01539
;WIPE_END
G1 Z.4 F720
G1 X184.578 Y24.968 F10800
G1 Z.2 F720
G1 E1 F2100
M204 S800
;TYPE:Solid infill
;WIDTH:0.420409
G1 F1200
G1 X186.343 Y26.732 E.07833
G1 X186.374 Y27.047 E.00994
G1 X186.374 Y27.297 E.00785
G1 X184.203 Y25.127 E.09635
G1 X183.669 Y25.127 E.01676
G1 X186.374 Y27.831 E.12005
G1 X186.374 Y28.365 E.01676
G1 X183.135 Y25.127 E.14376
G1 X182.602 Y25.127 E.01673
G1 X186.374 Y28.899 E.16744
G1 X186.374 Y29.432 E.01673
G1 X182.068 Y25.127 E.19112
G1 X181.534 Y25.127 E.01676
G1 X186.374 Y29.966 E.21482
G1 X186.374 Y30.5 E.01676
G1 X181 Y25.127 E.23853
G1 X180.466 Y25.127 E.01676
G1 X186.374 Y31.034 E.26223
G1 X186.374 Y31.568 E.01676
G1 X179.932 Y25.127 E.28594
G1 X179.398 Y25.127 E.01676
G1 X186.374 Y32.102 E.30964
G1 X186.374 Y32.636 E.01676
G1 X183.87 Y30.132 E.11115
G1 X184.026 Y30.607 E.01569
G1 X184.055 Y30.851 E.00771
G1 X186.374 Y33.169 E.10292
G1 X186.374 Y33.703 E.01676
G1 X184.123 Y31.452 E.09992
G1 X184.085 Y31.949 E.01565
G1 X186.374 Y34.237 E.10159
G1 X186.374 Y34.771 E.01676
G1 X184.015 Y32.412 E.10472
G1 X183.892 Y32.823 E.01347
G1 X186.374 Y35.305 E.11018
G1 X186.374 Y35.839 E.01676
G1 X183.739 Y33.204 E.11697
G1 X183.557 Y33.555 E.01241
G1 X186.374 Y36.372 E.12505
G1 X186.374 Y36.906 E.01676
G1 X183.35 Y33.883 E.13421
G1 X183.112 Y34.178 E.0119
G1 X186.374 Y37.44 E.1448
G1 X186.374 Y37.974 E.01676
G1 X182.864 Y34.464 E.15581
G1 X182.567 Y34.701 E.01193
G1 X186.374 Y38.508 E.16899
G1 X186.374 Y39.042 E.01676
G1 X182.263 Y34.931 E.18249
G1 X182.15 Y35.016 E.00444
G1 X181.934 Y35.136 E.00776
G1 X186.374 Y39.576 E.19709
G1 X186.374 Y40.109 E.01673
G1 X181.56 Y35.296 E.21367
